!!! OTL: Berkowitz264
!!! Chapter: 1
!!! Section: II
!!! Page: 62
!!! Mode: 
!!! Encoder: DJB
**kern
*staff1
*I"Piano
=1-
*clefG2
*k[f#]
*e:
*met(c)
*M4/4
4e/
8b\L
8b\J
8a\L
8cc\J
4b\
=2
8a/L
8f#/J
4g/
8f#/L
8d#/J
4e/
=3
4e/
4b\
8cc/L
8a/
8b/
8g/J
=4
4a/
8.f#/L
16g/Jk
8f#/L
8d#/
8e/
8f#/J
=5
4g/
8dd\L
8dd\J
8ee\L
8cc\J
4dd\
=6
8cc/L
8a/
8b/
8g/J
8a/L
8f#/
8g/
8a/J
=7
!!linebreak:original
4b\
4e/
8cc\L
8a\J
4cc\
=8
8.b/L
16a/Jk
8g/L
8f#/J
2e/
==
*-
